; generated by Slic3r 1.0.1 on 2014-07-16 at 22:47:41

; layer_height = .28
; perimeters = 3
; top_solid_layers = 3
; bottom_solid_layers = 3
; fill_density = .75
; perimeter_speed = 40
; infill_speed = 70
; travel_speed = 80
; nozzle_diameter = 0.35
; filament_diameter = 2.84
; extrusion_multiplier = 1
; perimeters extrusion width = 0.35mm
; infill extrusion width = 0.37mm
; solid infill extrusion width = 0.37mm
; top infill extrusion width = 0.37mm
; first layer extrusion width = 0.70mm

G21 ; set units to millimeters
M107
M104 S200 ; set temperature
G28 ; home all axes
G29 ; Bed Levelling Probe
G1 X-20 Y35 ; Reset to 0,0 after levelling... Don't know why it fails...
G92 X0 Y0 ; Set these as home
G1 Z5 F5000 ; lift nozzle
M109 S200 ; wait for temperature to be reached
G90 ; use absolute coordinates
G92 E0
M82 ; use absolute distances for extrusion
G1 F1800.000 E-2.00000
G92 E0
G1 Z0.350 F4800.000
G1 X43.390 Y63.150 F4800.000
G1 E2.00000 F1800.000
G1 X63.470 Y52.480 E2.78508 F480.000
G1 X65.100 Y51.720 E2.84717
G1 X66.190 Y51.280 E2.88776
G1 X67.300 Y50.890 E2.92838
G1 X68.120 Y50.650 E2.95788
G1 X69.570 Y50.280 E3.00954
G1 X70.820 Y50.040 E3.05349
G1 X72.780 Y49.790 E3.12171
G1 X74.640 Y49.700 E3.18600
G1 X75.980 Y49.720 E3.23227
G1 X77.150 Y49.790 E3.27274
G1 X78.760 Y49.980 E3.32871
G1 X80.310 Y50.260 E3.38309
G1 X81.450 Y50.540 E3.42362
G1 X82.580 Y50.860 E3.46417
G1 X84.350 Y51.490 E3.52903
G1 X85.240 Y51.870 E3.56245
G1 X86.520 Y52.480 E3.61140
G1 X106.610 Y63.150 E4.39678
G1 X107.790 Y63.950 E4.44601
G1 X108.780 Y64.990 E4.49558
G1 X109.510 Y66.220 E4.54496
G1 X109.970 Y67.580 E4.59453
G1 X110.120 Y69.000 E4.64383
G1 X110.120 Y81.000 E5.05814
G1 X109.970 Y82.420 E5.10744
G1 X109.510 Y83.780 E5.15701
G1 X108.780 Y85.010 E5.20639
G1 X107.790 Y86.050 E5.25597
G1 X106.610 Y86.850 E5.30519
G1 X87.100 Y97.210 E6.06787
G1 X85.960 Y97.790 E6.11203
G1 X84.890 Y98.270 E6.15252
G1 X83.800 Y98.710 E6.19310
G1 X82.930 Y99.020 E6.22499
G1 X81.450 Y99.450 E6.27820
G1 X80.410 Y99.710 E6.31521
G1 X79.550 Y99.880 E6.34548
G1 X78.500 Y100.050 E6.38220
G1 X78.060 Y100.110 E6.39753
G1 X76.510 Y100.250 E6.45127
G1 X75.920 Y100.280 E6.47166
G1 X74.410 Y100.280 E6.52380
G1 X74.010 Y100.270 E6.53761
G1 X72.400 Y100.160 E6.59333
G1 X70.830 Y99.950 E6.64802
G1 X69.680 Y99.730 E6.68844
G1 X68.150 Y99.350 E6.74287
G1 X66.310 Y98.760 E6.80958
G1 X65.760 Y98.550 E6.82991
G1 X64.030 Y97.790 E6.89515
G1 X62.890 Y97.210 E6.93931
G1 X43.390 Y86.850 E7.70168
G1 X42.210 Y86.050 E7.75090
G1 X41.220 Y85.010 E7.80048
G1 X40.490 Y83.780 E7.84986
G1 X40.030 Y82.420 E7.89943
G1 X39.880 Y81.000 E7.94873
G1 X39.880 Y69.000 E8.36304
G1 X40.030 Y67.580 E8.41234
G1 X40.490 Y66.220 E8.46191
G1 X41.220 Y64.990 E8.51129
G1 X42.210 Y63.960 E8.56061
G1 X43.313 Y63.203 E8.60679
G1 F1800.000 E6.60679
G92 E0
G1 X48.100 Y77.600 F4800.000
G1 E2.00000 F1800.000
G1 X59.112 Y77.600 E2.38022 F480.000
G1 X59.288 Y78.512 E2.41230
G1 X59.406 Y79.004 E2.42976
G1 X59.539 Y79.492 E2.44722
G1 X59.852 Y80.454 E2.48214
G1 X60.031 Y80.927 E2.49961
G1 X60.432 Y81.855 E2.53452
G1 X60.892 Y82.756 E2.56944
G1 X61.142 Y83.195 E2.58690
G1 X61.684 Y84.050 E2.62183
G1 X62.259 Y84.841 E2.65561
G1 X62.595 Y85.262 E2.67421
G1 X63.264 Y86.021 E2.70913
G1 X63.979 Y86.736 E2.74404
G1 X64.353 Y87.077 E2.76151
G1 X65.132 Y87.721 E2.79643
G1 X65.950 Y88.316 E2.83135
G1 X66.373 Y88.594 E2.84881
G1 X66.805 Y88.858 E2.86628
G1 X67.691 Y89.345 E2.90119
G1 X68.145 Y89.568 E2.91866
G1 X69.073 Y89.969 E2.95358
G1 X69.546 Y90.148 E2.97105
G1 X70.508 Y90.461 E3.00596
G1 X70.996 Y90.594 E3.02343
G1 X71.983 Y90.815 E3.05834
G1 X72.982 Y90.973 E3.09327
G1 X73.989 Y91.068 E3.12818
G1 X74.494 Y91.092 E3.14565
G1 X75.000 Y91.100 E3.16311
G1 X76.011 Y91.068 E3.19803
G1 X77.018 Y90.973 E3.23295
G1 X77.519 Y90.902 E3.25041
G1 X78.017 Y90.815 E3.26787
G1 X79.004 Y90.594 E3.30280
G1 X79.492 Y90.461 E3.32026
G1 X80.453 Y90.148 E3.35517
G1 X80.927 Y89.969 E3.37265
G1 X81.855 Y89.568 E3.40755
G1 X82.309 Y89.345 E3.42502
G1 X83.195 Y88.858 E3.45994
G1 X84.050 Y88.316 E3.49487
G1 X84.868 Y87.721 E3.52978
G1 X85.262 Y87.405 E3.54724
G1 X86.021 Y86.736 E3.58217
G1 X86.736 Y86.021 E3.61708
G1 X87.077 Y85.647 E3.63455
G1 X87.405 Y85.263 E3.65201
G1 X88.025 Y84.464 E3.68692
G1 X88.316 Y84.050 E3.70439
G1 X88.858 Y83.196 E3.73932
G1 X89.345 Y82.309 E3.77423
G1 X89.568 Y81.855 E3.79170
G1 X89.969 Y80.927 E3.82662
G1 X90.148 Y80.454 E3.84408
G1 X90.461 Y79.492 E3.87900
G1 X90.594 Y79.004 E3.89646
G1 X90.712 Y78.512 E3.91392
G1 X90.888 Y77.600 E3.94600
G1 X101.900 Y77.600 E4.32622
G1 X101.900 Y79.400 E4.38838
G1 X91.539 Y79.400 E4.74610
G1 X90.876 Y81.286 E4.81511
G1 X90.450 Y82.270 E4.85215
G1 X89.963 Y83.226 E4.88918
G1 X89.460 Y84.079 E4.92338
G1 X89.122 Y84.598 E4.94474
G1 X88.492 Y85.465 E4.98177
G1 X88.156 Y85.884 E5.00030
G1 X87.808 Y86.292 E5.01881
G1 X87.131 Y87.015 E5.05302
G1 X86.292 Y87.808 E5.09288
G1 X85.529 Y88.441 E5.12708
G1 X85.036 Y88.814 E5.14843
G1 X84.149 Y89.417 E5.18547
G1 X83.297 Y89.922 E5.21967
G1 X82.752 Y90.214 E5.24102
G1 X81.856 Y90.637 E5.27523
G1 X81.286 Y90.876 E5.29658
G1 X80.784 Y91.066 E5.31510
G1 X79.842 Y91.373 E5.34930
G1 X78.725 Y91.664 E5.38916
G1 X78.200 Y91.773 E5.40768
G1 X77.140 Y91.940 E5.44472
G1 X76.607 Y91.999 E5.46324
G1 X75.536 Y92.067 E5.50028
G1 X74.464 Y92.067 E5.53731
G1 X73.393 Y91.999 E5.57435
G1 X72.329 Y91.865 E5.61138
G1 X71.800 Y91.773 E5.62990
G1 X70.754 Y91.539 E5.66693
G1 X70.236 Y91.397 E5.68545
G1 X69.216 Y91.066 E5.72249
G1 X68.219 Y90.671 E5.75953
G1 X67.730 Y90.450 E5.77804
G1 X66.774 Y89.963 E5.81508
G1 X65.851 Y89.417 E5.85211
G1 X65.402 Y89.122 E5.87064
G1 X64.535 Y88.492 E5.90767
G1 X63.708 Y87.808 E5.94470
G1 X62.926 Y87.074 E5.98174
G1 X62.553 Y86.689 E6.00027
G1 X62.192 Y86.292 E6.01878
G1 X61.559 Y85.529 E6.05299
G1 X60.877 Y84.597 E6.09286
G1 X60.583 Y84.149 E6.11137
G1 X60.037 Y83.226 E6.14840
G1 X59.550 Y82.270 E6.18544
G1 X59.124 Y81.286 E6.22247
G1 X58.461 Y79.400 E6.29149
G1 X48.100 Y79.400 E6.64920
G1 X48.100 Y77.694 E6.70813
G1 X47.475 Y76.975 F4800.000
G1 X59.652 Y76.975 E7.12856 F480.000
G1 X59.799 Y77.900 E7.16089
G1 X59.898 Y78.376 E7.17767
G1 X60.139 Y79.317 E7.21124
G1 X60.282 Y79.782 E7.22802
G1 X60.612 Y80.697 E7.26159
G1 X60.998 Y81.589 E7.29515
G1 X61.212 Y82.026 E7.31194
G1 X61.680 Y82.877 E7.34550
G1 X61.934 Y83.292 E7.36228
G1 X62.481 Y84.096 E7.39585
G1 X63.076 Y84.864 E7.42941
G1 X63.392 Y85.234 E7.44620
G1 X63.719 Y85.593 E7.46299
G1 X64.407 Y86.281 E7.49654
G1 X64.766 Y86.608 E7.51333
G1 X65.515 Y87.228 E7.54690
G1 X65.904 Y87.519 E7.56368
G1 X66.689 Y88.053 E7.59644
G1 X67.545 Y88.561 E7.63081
G1 X68.390 Y88.992 E7.66357
G1 X68.854 Y89.202 E7.68116
G1 X69.758 Y89.560 E7.71473
G1 X70.683 Y89.861 E7.74829
G1 X71.152 Y89.989 E7.76507
G1 X72.100 Y90.201 E7.79863
G1 X72.579 Y90.284 E7.81542
G1 X73.060 Y90.353 E7.83221
G1 X74.028 Y90.444 E7.86577
G1 X75.000 Y90.475 E7.89933
G1 X75.486 Y90.467 E7.91612
G1 X75.972 Y90.444 E7.93290
G1 X76.939 Y90.353 E7.96647
G1 X77.900 Y90.201 E8.00004
G1 X78.376 Y90.102 E8.01682
G1 X79.317 Y89.861 E8.05039
G1 X79.782 Y89.718 E8.06717
G1 X80.697 Y89.388 E8.10074
G1 X81.146 Y89.202 E8.11752
G1 X82.025 Y88.788 E8.15108
G1 X82.455 Y88.561 E8.16787
G1 X82.877 Y88.320 E8.18465
G1 X83.698 Y87.799 E8.21822
G1 X84.485 Y87.228 E8.25178
G1 X84.864 Y86.924 E8.26856
G1 X85.234 Y86.608 E8.28535
G1 X85.942 Y85.942 E8.31891
G1 X86.608 Y85.234 E8.35248
G1 X86.924 Y84.864 E8.36926
G1 X87.228 Y84.485 E8.38605
G1 X87.799 Y83.698 E8.41961
G1 X88.320 Y82.877 E8.45318
G1 X88.561 Y82.455 E8.46996
G1 X88.992 Y81.610 E8.50272
G1 X89.202 Y81.146 E8.52031
G1 X89.388 Y80.697 E8.53710
G1 X89.718 Y79.782 E8.57066
G1 X89.861 Y79.317 E8.58744
G1 X90.102 Y78.376 E8.62101
G1 X90.201 Y77.900 E8.63779
G1 X90.348 Y76.975 E8.67013
G1 X102.525 Y76.975 E9.09055
G1 X102.525 Y80.025 E9.19586
G1 X91.986 Y80.025 E9.55974
G1 X91.457 Y81.516 E9.61435
G1 X91.244 Y82.030 E9.63355
G1 X90.771 Y83.036 E9.67194
G1 X90.511 Y83.527 E9.69114
G1 X89.993 Y84.406 E9.72636
G1 X89.320 Y85.404 E9.76792
G1 X88.986 Y85.848 E9.78711
G1 X88.277 Y86.705 E9.82550
G1 X87.516 Y87.516 E9.86389
G1 X86.705 Y88.277 E9.90228
G1 X86.282 Y88.638 E9.92149
G1 X85.849 Y88.986 E9.94068
G1 X84.949 Y89.639 E9.97908
G1 X84.484 Y89.945 E9.99827
G1 X83.527 Y90.511 E10.03666
G1 X82.536 Y91.015 E10.07505
G1 X82.030 Y91.244 E10.09425
G1 X80.996 Y91.654 E10.13264
G1 X80.026 Y91.970 E10.16786
G1 X79.402 Y92.144 E10.19023
G1 X78.317 Y92.386 E10.22862
G1 X77.309 Y92.547 E10.26384
G1 X76.666 Y92.621 E10.28621
G1 X75.556 Y92.691 E10.32460
G1 X74.444 Y92.691 E10.36299
G1 X73.889 Y92.665 E10.38218
G1 X72.782 Y92.560 E10.42057
G1 X71.774 Y92.402 E10.45579
G1 X71.139 Y92.274 E10.47816
G1 X70.062 Y91.997 E10.51655
G1 X69.530 Y91.834 E10.53575
G1 X68.570 Y91.490 E10.57097
G1 X67.464 Y91.015 E10.61253
G1 X66.473 Y90.511 E10.65092
G1 X65.516 Y89.945 E10.68931
G1 X65.051 Y89.639 E10.70851
G1 X64.152 Y88.986 E10.74690
G1 X63.295 Y88.277 E10.78529
G1 X62.484 Y87.516 E10.82368
G1 X62.097 Y87.116 E10.84288
G1 X61.723 Y86.705 E10.86207
G1 X61.072 Y85.920 E10.89730
G1 X60.361 Y84.949 E10.93886
G1 X60.055 Y84.484 E10.95805
G1 X59.535 Y83.607 E10.99327
G1 X58.985 Y82.536 E11.03483
G1 X58.543 Y81.516 E11.07322
G1 X58.014 Y80.025 E11.12783
G1 X47.475 Y80.025 E11.49171
G1 X47.475 Y77.069 E11.59378
G1 X46.850 Y76.350 F4800.000
G1 X60.211 Y76.350 E12.05507 F336.000
G1 X60.333 Y77.323 E12.08893
G1 X60.413 Y77.783 E12.10504
G1 X60.616 Y78.693 E12.13725
G1 X60.740 Y79.143 E12.15335
G1 X61.028 Y80.030 E12.18556
G1 X61.193 Y80.467 E12.20167
G1 X61.563 Y81.323 E12.23388
G1 X61.769 Y81.742 E12.24999
G1 X62.218 Y82.559 E12.28219
G1 X62.718 Y83.347 E12.31441
G1 X63.258 Y84.091 E12.34615
G1 X63.558 Y84.466 E12.36272
G1 X63.861 Y84.821 E12.37883
G1 X64.499 Y85.501 E12.41104
G1 X65.179 Y86.139 E12.44324
G1 X65.534 Y86.442 E12.45935
G1 X65.898 Y86.734 E12.47546
G1 X66.653 Y87.282 E12.50767
G1 X67.441 Y87.782 E12.53988
G1 X68.258 Y88.231 E12.57209
G1 X68.677 Y88.437 E12.58819
G1 X69.533 Y88.807 E12.62040
G1 X69.970 Y88.972 E12.63651
G1 X70.857 Y89.260 E12.66872
G1 X71.307 Y89.384 E12.68483
G1 X72.217 Y89.587 E12.71703
G1 X72.677 Y89.667 E12.73314
G1 X73.139 Y89.733 E12.74925
G1 X74.068 Y89.821 E12.78146
G1 X75.000 Y89.850 E12.81367
G1 X75.466 Y89.843 E12.82977
G1 X75.932 Y89.821 E12.84588
G1 X76.861 Y89.733 E12.87809
G1 X77.783 Y89.587 E12.91030
G1 X78.693 Y89.384 E12.94251
G1 X79.143 Y89.260 E12.95861
G1 X80.030 Y88.972 E12.99082
G1 X80.467 Y88.807 E13.00693
G1 X81.323 Y88.437 E13.03914
G1 X81.742 Y88.231 E13.05525
G1 X82.559 Y87.782 E13.08745
G1 X83.347 Y87.282 E13.11966
G1 X83.729 Y87.014 E13.13577
G1 X84.466 Y86.442 E13.16798
G1 X84.820 Y86.139 E13.18409
G1 X85.166 Y85.825 E13.20020
G1 X85.825 Y85.166 E13.23240
G1 X86.139 Y84.821 E13.24851
G1 X86.734 Y84.102 E13.28072
G1 X87.282 Y83.347 E13.31293
G1 X87.538 Y82.957 E13.32903
G1 X87.782 Y82.559 E13.34514
G1 X88.231 Y81.742 E13.37735
G1 X88.437 Y81.323 E13.39346
G1 X88.807 Y80.467 E13.42567
G1 X88.972 Y80.030 E13.44177
G1 X89.260 Y79.143 E13.47398
G1 X89.384 Y78.693 E13.49009
G1 X89.587 Y77.783 E13.52230
G1 X89.733 Y76.861 E13.55451
G1 X89.789 Y76.350 E13.57226
G1 X103.150 Y76.350 E14.03355
G1 X103.150 Y80.650 E14.18201
G1 X92.432 Y80.650 E14.55205
G1 X92.038 Y81.746 E14.59226
G1 X91.818 Y82.278 E14.61213
G1 X91.328 Y83.319 E14.65188
G1 X91.058 Y83.828 E14.67176
G1 X90.525 Y84.732 E14.70799
G1 X89.825 Y85.771 E14.75125
G1 X89.480 Y86.232 E14.77112
G1 X88.746 Y87.119 E14.81087
G1 X87.958 Y87.958 E14.85061
G1 X87.119 Y88.746 E14.89036
G1 X86.681 Y89.120 E14.91024
G1 X86.232 Y89.480 E14.93011
G1 X85.300 Y90.156 E14.96986
G1 X84.819 Y90.472 E14.98973
G1 X83.828 Y91.058 E15.02948
G1 X82.802 Y91.581 E15.06923
G1 X82.278 Y91.818 E15.08910
G1 X81.207 Y92.242 E15.12885
G1 X80.210 Y92.567 E15.16508
G1 X79.557 Y92.749 E15.18847
G1 X78.434 Y93.000 E15.22821
G1 X77.397 Y93.166 E15.26445
G1 X76.725 Y93.244 E15.28784
G1 X75.576 Y93.316 E15.32758
G1 X74.424 Y93.316 E15.36733
G1 X73.849 Y93.289 E15.38720
G1 X72.703 Y93.180 E15.42695
G1 X71.566 Y93.000 E15.46670
G1 X71.003 Y92.884 E15.48657
G1 X69.888 Y92.597 E15.52632
G1 X69.337 Y92.428 E15.54619
G1 X68.349 Y92.074 E15.58243
G1 X67.198 Y91.581 E15.62568
G1 X66.172 Y91.058 E15.66543
G1 X65.181 Y90.472 E15.70517
G1 X64.700 Y90.156 E15.72505
G1 X63.768 Y89.480 E15.76480
G1 X62.881 Y88.746 E15.80454
G1 X62.042 Y87.958 E15.84429
G1 X61.642 Y87.544 E15.86417
G1 X61.254 Y87.119 E15.88404
G1 X60.584 Y86.311 E15.92028
G1 X59.844 Y85.300 E15.96353
G1 X59.528 Y84.819 E15.98341
G1 X58.992 Y83.916 E16.01964
G1 X58.419 Y82.802 E16.06290
G1 X57.962 Y81.746 E16.10264
G1 X57.568 Y80.650 E16.14285
G1 X46.850 Y80.650 E16.51289
G1 X46.850 Y76.444 E16.65811
G1 X47.391 Y76.662 F4800.000
G1 F1800.000 E14.65811
G92 E0
G1 X48.100 Y72.400 F4800.000
G1 E2.00000 F1800.000
G1 X48.100 Y70.600 E2.06216 F480.000
G1 X58.461 Y70.600 E2.41988
G1 X59.124 Y68.714 E2.48889
G1 X59.550 Y67.730 E2.52592
G1 X60.037 Y66.774 E2.56296
G1 X60.540 Y65.921 E2.59716
G1 X60.878 Y65.402 E2.61851
G1 X61.508 Y64.535 E2.65555
G1 X62.192 Y63.708 E2.69258
G1 X62.553 Y63.311 E2.71111
G1 X62.926 Y62.926 E2.72962
G1 X63.647 Y62.247 E2.76383
G1 X64.534 Y61.508 E2.80369
G1 X64.964 Y61.186 E2.82221
G1 X65.782 Y60.628 E2.85642
G1 X66.774 Y60.037 E2.89628
G1 X67.730 Y59.550 E2.93332
G1 X68.219 Y59.329 E2.95184
G1 X69.216 Y58.934 E2.98887
G1 X70.158 Y58.627 E3.02307
G1 X70.754 Y58.461 E3.04443
G1 X71.800 Y58.227 E3.08146
G1 X72.779 Y58.071 E3.11566
G1 X73.393 Y58.001 E3.13702
G1 X74.464 Y57.933 E3.17405
G1 X75.536 Y57.933 E3.21109
G1 X76.607 Y58.001 E3.24812
G1 X77.140 Y58.060 E3.26664
G1 X77.671 Y58.135 E3.28516
G1 X78.725 Y58.336 E3.32219
G1 X79.764 Y58.603 E3.35923
G1 X80.277 Y58.761 E3.37775
G1 X81.209 Y59.095 E3.41195
G1 X82.270 Y59.550 E3.45182
G1 X83.226 Y60.037 E3.48885
G1 X83.692 Y60.303 E3.50738
G1 X84.149 Y60.583 E3.52589
G1 X85.036 Y61.186 E3.56293
G1 X85.465 Y61.508 E3.58145
G1 X86.292 Y62.192 E3.61848
G1 X87.074 Y62.926 E3.65552
G1 X87.808 Y63.708 E3.69255
G1 X88.157 Y64.116 E3.71108
G1 X88.492 Y64.534 E3.72959
G1 X89.122 Y65.403 E3.76663
G1 X89.417 Y65.851 E3.78515
G1 X89.922 Y66.703 E3.81935
G1 X90.450 Y67.730 E3.85922
G1 X90.876 Y68.714 E3.89625
G1 X91.539 Y70.600 E3.96526
G1 X101.900 Y70.600 E4.32298
G1 X101.900 Y72.400 E4.38515
G1 X90.888 Y72.400 E4.76537
G1 X90.712 Y71.488 E4.79744
G1 X90.594 Y70.996 E4.81491
G1 X90.451 Y70.477 E4.83351
G1 X90.148 Y69.546 E4.86728
G1 X89.969 Y69.073 E4.88475
G1 X89.568 Y68.145 E4.91967
G1 X89.345 Y67.691 E4.93713
G1 X88.858 Y66.804 E4.97205
G1 X88.316 Y65.950 E5.00698
G1 X88.025 Y65.537 E5.02444
G1 X87.701 Y65.106 E5.04304
G1 X87.077 Y64.353 E5.07682
G1 X86.736 Y63.979 E5.09429
G1 X86.021 Y63.264 E5.12919
G1 X85.262 Y62.595 E5.16412
G1 X84.841 Y62.259 E5.18272
G1 X84.050 Y61.684 E5.21650
G1 X83.195 Y61.142 E5.25143
G1 X82.756 Y60.892 E5.26889
G1 X81.855 Y60.432 E5.30381
G1 X81.394 Y60.224 E5.32126
G1 X80.896 Y60.019 E5.33987
G1 X79.975 Y59.688 E5.37365
G1 X79.004 Y59.406 E5.40857
G1 X78.017 Y59.185 E5.44349
G1 X77.519 Y59.098 E5.46095
G1 X76.515 Y58.972 E5.49588
G1 X75.506 Y58.908 E5.53079
G1 X74.494 Y58.908 E5.56571
G1 X73.935 Y58.934 E5.58505
G1 X73.935 Y58.781 E5.59035
G1 X71.488 Y59.288 E5.67663
G1 X70.996 Y59.406 E5.69409
G1 X70.477 Y59.549 E5.71269
G1 X69.546 Y59.852 E5.74647
G1 X68.606 Y60.224 E5.78139
G1 X68.115 Y60.447 E5.80000
G1 X67.244 Y60.891 E5.83377
G1 X66.346 Y61.424 E5.86983
G1 X65.537 Y61.975 E5.90362
G1 X65.132 Y62.278 E5.92107
G1 X64.353 Y62.923 E5.95599
G1 X63.979 Y63.264 E5.97346
G1 X63.264 Y63.979 E6.00837
G1 X62.923 Y64.353 E6.02584
G1 X62.279 Y65.132 E6.06076
G1 X61.684 Y65.950 E6.09568
G1 X61.406 Y66.373 E6.11314
G1 X60.892 Y67.244 E6.14806
G1 X60.432 Y68.145 E6.18299
G1 X60.031 Y69.073 E6.21789
G1 X59.852 Y69.546 E6.23536
G1 X59.539 Y70.508 E6.27028
G1 X59.406 Y70.996 E6.28775
G1 X59.288 Y71.488 E6.30521
G1 X59.112 Y72.400 E6.33729
G1 X48.194 Y72.400 E6.71427
G1 X47.475 Y73.025 F4800.000
G1 X47.475 Y69.975 E6.81958 F480.000
G1 X58.014 Y69.975 E7.18346
G1 X58.543 Y68.484 E7.23807
